icons/ellipsis-double-v.svg

<svg width="24" height="24" viewBox="0 0 24 24" fill="none" xmlns="http://www.w3.org/2000/svg">
<path fill-rule="evenodd" clip-rule="evenodd" d="M8.5 3.75C7.80964 3.75 7.25 4.30964 7.25 5C7.25 5.69036 7.80964 6.25 8.5 6.25C9.19036 6.25 9.75 5.69036 9.75 5C9.75 4.30964 9.19036 3.75 8.5 3.75ZM5.75 5C5.75 3.48122 6.98122 2.25 8.5 2.25C10.0188 2.25 11.25 3.48122 11.25 5C11.25 6.51878 10.0188 7.75 8.5 7.75C6.98122 7.75 5.75 6.51878 5.75 5ZM7.25 12C7.25 11.3096 7.80964 10.75 8.5 10.75C9.19036 10.75 9.75 11.3096 9.75 12C9.75 12.6904 9.19036 13.25 8.5 13.25C7.80964 13.25 7.25 12.6904 7.25 12ZM8.5 9.25C6.98122 9.25 5.75 10.4812 5.75 12C5.75 13.5188 6.98122 14.75 8.5 14.75C10.0188 14.75 11.25 13.5188 11.25 12C11.25 10.4812 10.0188 9.25 8.5 9.25ZM7.25 19C7.25 18.3096 7.80964 17.75 8.5 17.75C9.19036 17.75 9.75 18.3096 9.75 19C9.75 19.6904 9.19036 20.25 8.5 20.25C7.80964 20.25 7.25 19.6904 7.25 19ZM8.5 16.25C6.98122 16.25 5.75 17.4812 5.75 19C5.75 20.5188 6.98122 21.75 8.5 21.75C10.0188 21.75 11.25 20.5188 11.25 19C11.25 17.4812 10.0188 16.25 8.5 16.25ZM14.25 19C14.25 18.3096 14.8096 17.75 15.5 17.75C16.1904 17.75 16.75 18.3096 16.75 19C16.75 19.6904 16.1904 20.25 15.5 20.25C14.8096 20.25 14.25 19.6904 14.25 19ZM15.5 16.25C13.9812 16.25 12.75 17.4812 12.75 19C12.75 20.5188 13.9812 21.75 15.5 21.75C17.0188 21.75 18.25 20.5188 18.25 19C18.25 17.4812 17.0188 16.25 15.5 16.25ZM15.5 10.75C14.8096 10.75 14.25 11.3096 14.25 12C14.25 12.6904 14.8096 13.25 15.5 13.25C16.1904 13.25 16.75 12.6904 16.75 12C16.75 11.3096 16.1904 10.75 15.5 10.75ZM12.75 12C12.75 10.4812 13.9812 9.25 15.5 9.25C17.0188 9.25 18.25 10.4812 18.25 12C18.25 13.5188 17.0188 14.75 15.5 14.75C13.9812 14.75 12.75 13.5188 12.75 12ZM14.25 5C14.25 4.30964 14.8096 3.75 15.5 3.75C16.1904 3.75 16.75 4.30964 16.75 5C16.75 5.69036 16.1904 6.25 15.5 6.25C14.8096 6.25 14.25 5.69036 14.25 5ZM15.5 2.25C13.9812 2.25 12.75 3.48122 12.75 5C12.75 6.51878 13.9812 7.75 15.5 7.75C17.0188 7.75 18.25 6.51878 18.25 5C18.25 3.48122 17.0188 2.25 15.5 2.25Z" fill="black"/>
</svg>

<svg xmlns="http://www.w3.org/2000/svg" viewBox="0 0 24 24" fill="currentColor">
  <path d="M8.5 3.75c-.69036 0-1.25.55964-1.25 1.25s.55964 1.25 1.25 1.25S9.75 5.69036 9.75 5 9.19036 3.75 8.5 3.75ZM5.75 5c0-1.51878 1.23122-2.75 2.75-2.75 1.5188 0 2.75 1.23122 2.75 2.75S10.0188 7.75 8.5 7.75C6.98122 7.75 5.75 6.51878 5.75 5Zm1.5 7c0-.6904.55964-1.25 1.25-1.25s1.25.5596 1.25 1.25-.55964 1.25-1.25 1.25-1.25-.5596-1.25-1.25ZM8.5 9.25c-1.51878 0-2.75 1.2312-2.75 2.75s1.23122 2.75 2.75 2.75c1.5188 0 2.75-1.2312 2.75-2.75S10.0188 9.25 8.5 9.25ZM7.25 19c0-.6904.55964-1.25 1.25-1.25s1.25.5596 1.25 1.25-.55964 1.25-1.25 1.25-1.25-.5596-1.25-1.25Zm1.25-2.75c-1.51878 0-2.75 1.2312-2.75 2.75s1.23122 2.75 2.75 2.75c1.5188 0 2.75-1.2312 2.75-2.75s-1.2312-2.75-2.75-2.75ZM14.25 19c0-.6904.5596-1.25 1.25-1.25s1.25.5596 1.25 1.25-.5596 1.25-1.25 1.25-1.25-.5596-1.25-1.25Zm1.25-2.75c-1.5188 0-2.75 1.2312-2.75 2.75s1.2312 2.75 2.75 2.75 2.75-1.2312 2.75-2.75-1.2312-2.75-2.75-2.75Zm0-5.5c-.6904 0-1.25.5596-1.25 1.25s.5596 1.25 1.25 1.25 1.25-.5596 1.25-1.25-.5596-1.25-1.25-1.25ZM12.75 12c0-1.5188 1.2312-2.75 2.75-2.75s2.75 1.2312 2.75 2.75-1.2312 2.75-2.75 2.75-2.75-1.2312-2.75-2.75Zm1.5-7c0-.69036.5596-1.25 1.25-1.25s1.25.55964 1.25 1.25-.5596 1.25-1.25 1.25-1.25-.55964-1.25-1.25Zm1.25-2.75c-1.5188 0-2.75 1.23122-2.75 2.75s1.2312 2.75 2.75 2.75S18.25 6.51878 18.25 5s-1.2312-2.75-2.75-2.75Z"/>
</svg>
